X: 918
T: Spotted Pony
B: jims roots
M:C|
L:1/8
R: reel
Q: 1/4=100
K:D
V:1 
(3ABc |: "D"d2a2 f4 | "G"efed BcdB | "D"AFDF Acd2 | fafd "A"ecAc |
"D"dAa2 f4 | "G"efed BcdB | "D"AFDF Acde |[1 "A"fdec "D"d2Ac:|[2  "A"fdec "D"d4||
|: "D"DEFD "A"EFGD | "D"F2AF "G"G2Bd | "D"AFDF Bcd2 | fgaf "A"edBA |
"D"DEFD "A"EFGD | "D"F2AF "G"G2Bd | "D"AFDF Bcde |[1 "A"fdec "D"d4 :|[2 "A"fdec "D"d2Ac |]
% abcbook-tune_id 6298c287596665667712cce2


% abcbook-boost 0
% abcbook-tablature 
% abcbook-transpose 
% abcbook-lastupdated 1654178440760
% abcbook-soundfonts 
% abcbook-repeats 1


